X: 1
T: the Earl of Errol's Jig
C: Charles Grane, MA
Z: John Chambers <jc:trillian.mit.edu>
M: 6/8
L: 1/8
K: C
|: "C"C2C C2E | G2c ecG | "F"A2G A2c | "C"efe edc \
|  "C"C2C C2E | G2c ecG | "F"Afe "G7"d<gB | "C"c2z c2z :|
|: "C"g2e ceg | ceg gec | "Dm"a2f dfa | dfa "(G7)"afd \
|  "C"g2e ceg | ceg gec | "F"Afe "G7"d<gB | "C"c2z c2z :
